ags/assets/tbox-close.svg

<?xml version="1.0" encoding="UTF-8" standalone="no"?>
<svg
   width="24"
   height="24"
   version="1.1"
   id="svg1"
   sodipodi:docname="tbox-close.svg"
   xml:space="preserve"
   inkscape:version="1.3.2 (091e20ef0f, 2023-11-25, custom)"
   xmlns:inkscape="http://www.inkscape.org/namespaces/inkscape"
   xmlns:sodipodi="http://sodipodi.sourceforge.net/DTD/sodipodi-0.dtd"
   xmlns="http://www.w3.org/2000/svg"
   xmlns:svg="http://www.w3.org/2000/svg"><sodipodi:namedview
     id="namedview1"
     pagecolor="#ffffff"
     bordercolor="#000000"
     borderopacity="0.25"
     inkscape:showpageshadow="2"
     inkscape:pageopacity="0.0"
     inkscape:pagecheckerboard="0"
     inkscape:deskcolor="#d1d1d1"
     inkscape:zoom="26.708333"
     inkscape:cx="11.981279"
     inkscape:cy="11.981279"
     inkscape:current-layer="svg1" /><defs
     id="defs1"><style
       id="current-color-scheme"
       type="text/css">
   .ColorScheme-Text { color:#dfdfdf; } .ColorScheme-Highlight { color:#4285f4; } .ColorScheme-NeutralText { color:#ff9800; } .ColorScheme-PositiveText { color:#4caf50; } .ColorScheme-NegativeText { color:#f44336; }
  </style></defs><g
     id="g2"
     transform="matrix(0.43167414,0,0,0.42254065,1.6211,1.3192164)"><path
       style="opacity:0.2"
       d="m 34.158694,7.001891 c -2.339941,-0.051114 -4.593769,0.9363666 -6.144072,2.6910582 -0.0012,0.0014 -0.0027,0.0025 -0.0039,0.0039 l -4.015616,4.4240828 -4.01174,-4.4162958 c -1.424465,-1.6183716 -3.450682,-2.592914 -5.603207,-2.6949526 -0.260519,-0.012616 -0.51772,-0.013001 -0.778224,0 a 5.977352,5.9824591 0 0 0 -0.01945,0 C 7.2433432,7.3455998 3.8467314,15.780704 8.1816032,20.422133 L 13.224489,25.975605 8.2594255,31.4434 c -1.5192901,1.580887 -2.4400962,4.078962 -2.2296097,6.266155 0.2104868,2.187194 1.2500876,3.924619 2.6187213,5.167923 1.3686339,1.243304 3.1976469,2.112373 5.3930859,2.110788 2.19544,-0.0016 4.590268,-1.161185 6.015666,-2.827365 l 3.937809,-4.330618 4.054544,4.463029 -0.147863,-0.167461 c 1.418645,1.683037 3.819828,2.866353 6.02734,2.874097 2.20751,0.0078 4.047562,-0.863731 5.420324,-2.110787 1.372761,-1.247055 2.417086,-2.995369 2.622612,-5.195185 0.205525,-2.199813 -0.739595,-4.705945 -2.276302,-6.281731 l -4.933937,-5.43664 5.050669,-5.561261 c 2.191468,-2.3538 2.626913,-5.893796 1.513644,-8.536614 C 40.212861,9.2349127 37.376326,7.0748944 34.162585,7.001891 a 5.977352,5.9824591 0 0 0 -0.0039,0 z"
       id="path1-3" /><path
       style="fill:#4f4f4f"
       d="m 34.158694,6.0018906 c -2.339941,-0.051114 -4.593769,0.9363666 -6.144072,2.6910586 -0.0012,0.00139 -0.0027,0.0025 -0.0039,0.0039 L 23.995106,13.120932 19.983366,8.7046361 C 18.558901,7.0862642 16.532684,6.1117218 14.380159,6.0096832 c -0.260519,-0.012616 -0.51772,-0.013001 -0.778224,0 a 5.977352,5.9824591 0 0 0 -0.01945,0 C 7.2433432,6.3455994 3.8467314,14.780704 8.1816032,19.422133 L 13.224489,24.975605 8.2594255,30.4434 c -1.5192901,1.580887 -2.4400962,4.078962 -2.2296097,6.266155 0.2104868,2.187194 1.2500876,3.924619 2.6187213,5.167923 1.3686339,1.243304 3.1976469,2.112373 5.3930859,2.110788 2.19544,-0.0016 4.590268,-1.161185 6.015666,-2.827365 l 3.937809,-4.330618 4.054544,4.463029 -0.147863,-0.167461 c 1.418645,1.683037 3.819828,2.866353 6.02734,2.874097 2.20751,0.0078 4.047562,-0.863731 5.420324,-2.110787 1.372761,-1.247055 2.417086,-2.995369 2.622612,-5.195185 0.205525,-2.199813 -0.739595,-4.705945 -2.276302,-6.281731 l -4.933937,-5.43664 5.050669,-5.561261 c 2.191468,-2.3538 2.626913,-5.893796 1.513644,-8.536614 C 40.212861,8.2349123 37.376326,6.074894 34.162585,6.0018906 a 5.977352,5.9824591 0 0 0 -0.0039,0 z"
       id="path2" /><path
       style="opacity:0.2"
       d="m 13.875,12.980111 a 2.0002,2.0002 0 0 0 -1.355469,3.363282 l 8.789063,9.667968 -8.769532,9.644532 A 2.0002,2.0002 0 1 0 15.5,38.343393 l 8.507812,-9.359374 8.51172,9.359374 a 2.0006762,2.0006762 0 1 0 2.960936,-2.6875 L 26.710938,26.011361 35.5,16.343393 a 2.0002,2.0002 0 0 0 -1.417968,-3.363282 2.0002,2.0002 0 0 0 -1.54297,0.675782 l -8.53125,9.382812 -8.527343,-9.382812 a 2.0002,2.0002 0 0 0 -1.40625,-0.675782 2.0002,2.0002 0 0 0 -0.199219,0 z"
       id="path3" /><path
       style="fill:#ffffff"
       transform="scale(2)"
       d="M 6.9375,5.9902344 A 1.0001,1.0001 0 0 0 6.2597656,7.671875 l 4.3945314,4.833984 -4.3847658,4.822266 A 1.0001,1.0001 0 1 0 7.75,18.671875 l 4.253906,-4.679687 4.25586,4.679687 a 1.0003381,1.0003381 0 1 0 1.480468,-1.34375 L 13.355469,12.505859 17.75,7.671875 A 1.0001,1.0001 0 0 0 17.041016,5.9902344 1.0001,1.0001 0 0 0 16.269531,6.328125 L 12.003906,11.019531 7.7402344,6.328125 a 1.0001,1.0001 0 0 0 -0.703125,-0.3378906 1.0001,1.0001 0 0 0 -0.099609,0 z"
       id="path4" /><path
       style="opacity:0.2;fill:#ffffff"
       transform="scale(2)"
       d="m 17.080078,3 c -1.16997,-0.025557 -2.297114,0.4683571 -3.072266,1.3457031 0,0 -0.002,0.00195 -0.002,0.00195 L 11.998047,6.5605469 9.9921875,4.3515625 C 9.279955,3.5423765 8.2657156,3.0549255 7.1894531,3.0039062 c -0.1302595,-0.00631 -0.2584199,-0.0065 -0.3886719,0 a 2.988676,2.9912295 0 0 0 -0.00977,0 C 4.516087,3.1244563 3.008504,5.3315905 3.1347612,7.4257812 3.2542394,5.4946775 4.6972247,3.6148577 6.7910112,3.5039062 a 2.988676,2.9912295 0 0 1 0.00977,0 c 0.130252,-0.0065 0.2584124,-0.00631 0.3886719,0 1.0762625,0.051019 2.0905019,0.5384705 2.8027344,1.3476563 l 2.0058595,2.2089844 2.007812,-2.2128907 c 0,0 0.002,-0.00195 0.002,-0.00195 C 14.782964,3.9683573 15.910108,3.474443 17.080078,3.5 a 2.988676,2.9912295 0 0 0 0.002,0 c 1.606871,0.036502 3.023444,1.1180442 3.580078,2.4394531 0.16598,0.3940229 0.255721,0.8292143 0.28125,1.2753907 0.03853,-0.6193247 -0.05357,-1.2348847 -0.28125,-1.7753907 C 20.105475,4.1180443 18.688902,3.0365017 17.082031,3 a 2.988676,2.9912295 0 0 0 -0.002,0 z M 6.3847656,12.738281 4.1289062,15.222656 c -0.7462708,0.776527 -1.199139,1.994686 -1.1152343,3.074219 0.063557,-0.939898 0.4824865,-1.915817 1.1152343,-2.574219 l 2.4824219,-2.734375 z m 11.2226564,0 -0.226563,0.25 2.466797,2.71875 c 0.646214,0.662647 1.079159,1.652595 1.140625,2.605469 0.08979,-1.091494 -0.380318,-2.325827 -1.140625,-3.105469 z"
       id="path5" /></g></svg>

<svg xmlns="http://www.w3.org/2000/svg" width="24" height="24" version="1.1" viewBox="0 0 48 48">
 <path style="opacity:0.2" d="m 34.158694,7.001891 c -2.339941,-0.051114 -4.593769,0.9363666 -6.144072,2.6910582 -0.0012,0.0014 -0.0027,0.0025 -0.0039,0.0039 l -4.015616,4.4240828 -4.01174,-4.4162958 c -1.424465,-1.6183716 -3.450682,-2.592914 -5.603207,-2.6949526 -0.260519,-0.012616 -0.51772,-0.013001 -0.778224,0 a 5.977352,5.9824591 0 0 0 -0.01945,0 C 7.2433432,7.3455998 3.8467314,15.780704 8.1816032,20.422133 L 13.224489,25.975605 8.2594255,31.4434 c -1.5192901,1.580887 -2.4400962,4.078962 -2.2296097,6.266155 0.2104868,2.187194 1.2500876,3.924619 2.6187213,5.167923 1.3686339,1.243304 3.1976469,2.112373 5.3930859,2.110788 2.19544,-0.0016 4.590268,-1.161185 6.015666,-2.827365 l 3.937809,-4.330618 4.054544,4.463029 -0.147863,-0.167461 c 1.418645,1.683037 3.819828,2.866353 6.02734,2.874097 2.20751,0.0078 4.047562,-0.863731 5.420324,-2.110787 1.372761,-1.247055 2.417086,-2.995369 2.622612,-5.195185 0.205525,-2.199813 -0.739595,-4.705945 -2.276302,-6.281731 l -4.933937,-5.43664 5.050669,-5.561261 c 2.191468,-2.3538 2.626913,-5.893796 1.513644,-8.536614 C 40.212861,9.2349127 37.376326,7.0748944 34.162585,7.001891 a 5.977352,5.9824591 0 0 0 -0.0039,0 z"/>
 <path style="fill:#4f4f4f" d="m 34.158694,6.0018906 c -2.339941,-0.051114 -4.593769,0.9363666 -6.144072,2.6910586 -0.0012,0.00139 -0.0027,0.0025 -0.0039,0.0039 L 23.995106,13.120932 19.983366,8.7046361 C 18.558901,7.0862642 16.532684,6.1117218 14.380159,6.0096832 c -0.260519,-0.012616 -0.51772,-0.013001 -0.778224,0 a 5.977352,5.9824591 0 0 0 -0.01945,0 C 7.2433432,6.3455994 3.8467314,14.780704 8.1816032,19.422133 L 13.224489,24.975605 8.2594255,30.4434 c -1.5192901,1.580887 -2.4400962,4.078962 -2.2296097,6.266155 0.2104868,2.187194 1.2500876,3.924619 2.6187213,5.167923 1.3686339,1.243304 3.1976469,2.112373 5.3930859,2.110788 2.19544,-0.0016 4.590268,-1.161185 6.015666,-2.827365 l 3.937809,-4.330618 4.054544,4.463029 -0.147863,-0.167461 c 1.418645,1.683037 3.819828,2.866353 6.02734,2.874097 2.20751,0.0078 4.047562,-0.863731 5.420324,-2.110787 1.372761,-1.247055 2.417086,-2.995369 2.622612,-5.195185 0.205525,-2.199813 -0.739595,-4.705945 -2.276302,-6.281731 l -4.933937,-5.43664 5.050669,-5.561261 c 2.191468,-2.3538 2.626913,-5.893796 1.513644,-8.536614 C 40.212861,8.2349123 37.376326,6.074894 34.162585,6.0018906 a 5.977352,5.9824591 0 0 0 -0.0039,0 z"/>
 <path style="opacity:0.2" d="m 13.875,12.980111 a 2.0002,2.0002 0 0 0 -1.355469,3.363282 l 8.789063,9.667968 -8.769532,9.644532 A 2.0002,2.0002 0 1 0 15.5,38.343393 l 8.507812,-9.359374 8.51172,9.359374 a 2.0006762,2.0006762 0 1 0 2.960936,-2.6875 L 26.710938,26.011361 35.5,16.343393 a 2.0002,2.0002 0 0 0 -1.417968,-3.363282 2.0002,2.0002 0 0 0 -1.54297,0.675782 l -8.53125,9.382812 -8.527343,-9.382812 a 2.0002,2.0002 0 0 0 -1.40625,-0.675782 2.0002,2.0002 0 0 0 -0.199219,0 z"/>
 <path style="fill:#ffffff" transform="scale(2)" d="M 6.9375 5.9902344 A 1.0001 1.0001 0 0 0 6.2597656 7.671875 L 10.654297 12.505859 L 6.2695312 17.328125 A 1.0001 1.0001 0 1 0 7.75 18.671875 L 12.003906 13.992188 L 16.259766 18.671875 A 1.0003381 1.0003381 0 1 0 17.740234 17.328125 L 13.355469 12.505859 L 17.75 7.671875 A 1.0001 1.0001 0 0 0 17.041016 5.9902344 A 1.0001 1.0001 0 0 0 16.269531 6.328125 L 12.003906 11.019531 L 7.7402344 6.328125 A 1.0001 1.0001 0 0 0 7.0371094 5.9902344 A 1.0001 1.0001 0 0 0 6.9375 5.9902344 z"/>
 <path style="opacity:0.2;fill:#ffffff" transform="scale(2)" d="M 17.080078 3 C 15.910108 2.974443 14.782964 3.4683571 14.007812 4.3457031 C 14.007812 4.3457031 14.005859 4.3476562 14.005859 4.3476562 L 11.998047 6.5605469 L 9.9921875 4.3515625 C 9.279955 3.5423765 8.2657156 3.0549255 7.1894531 3.0039062 C 7.0591936 2.9975982 6.9310332 2.9974058 6.8007812 3.0039062 A 2.988676 2.9912295 0 0 0 6.7910156 3.0039062 C 4.5160914 3.1244563 3.0085084 5.3315905 3.1347656 7.4257812 C 3.2542438 5.4946775 4.6972291 3.6148577 6.7910156 3.5039062 A 2.988676 2.9912295 0 0 1 6.8007812 3.5039062 C 6.9310332 3.4974057 7.0591936 3.4975982 7.1894531 3.5039062 C 8.2657156 3.5549256 9.279955 4.0423767 9.9921875 4.8515625 L 11.998047 7.0605469 L 14.005859 4.8476562 C 14.005859 4.8476562 14.007812 4.8457031 14.007812 4.8457031 C 14.782964 3.9683573 15.910108 3.474443 17.080078 3.5 A 2.988676 2.9912295 0 0 0 17.082031 3.5 C 18.688902 3.5365017 20.105475 4.6180442 20.662109 5.9394531 C 20.828089 6.333476 20.91783 6.7686674 20.943359 7.2148438 C 20.981887 6.5955191 20.889794 5.9799591 20.662109 5.4394531 C 20.105475 4.1180443 18.688902 3.0365017 17.082031 3 A 2.988676 2.9912295 0 0 0 17.080078 3 z M 6.3847656 12.738281 L 4.1289062 15.222656 C 3.3826354 15.999183 2.9297672 17.217342 3.0136719 18.296875 C 3.0772286 17.356977 3.4961584 16.381058 4.1289062 15.722656 L 6.6113281 12.988281 L 6.3847656 12.738281 z M 17.607422 12.738281 L 17.380859 12.988281 L 19.847656 15.707031 C 20.49387 16.369678 20.926815 17.359626 20.988281 18.3125 C 21.078073 17.221006 20.607963 15.986673 19.847656 15.207031 L 17.607422 12.738281 z"/>
</svg>
